symbols/web/handshake/materialsymbolsoutlined/handshake_wght500_40px.svg

<svg xmlns="http://www.w3.org/2000/svg" height="40" width="40"><path d="M19.75 33.875q.208 0 .438-.083.229-.084.395-.25l13.875-13.875q.542-.584.834-1.292.291-.708.291-1.417 0-.75-.291-1.479-.292-.729-.834-1.271l-7.041-7.041q-.542-.542-1.229-.792-.688-.25-1.396-.25-.709 0-1.375.25-.667.25-1.209.75l-.583.583 3.208 3.25q.625.625 1.021 1.438.396.812.396 1.771 0 1.708-1.292 3-1.291 1.291-3.041 1.291-1.042 0-1.792-.333t-1.375-.958l-3.042-3.042-7.291 7.25q-.167.167-.25.375-.084.208-.084.458 0 .459.334.771.333.313.791.313.209 0 .417-.104.208-.105.375-.23l5.625-5.625 1.917 1.959-5.584 5.583q-.166.167-.25.396-.083.229-.083.437 0 .459.333.771.334.313.792.313.208 0 .417-.084.208-.083.375-.25l5.583-5.583 1.958 1.958-5.583 5.584q-.167.125-.25.354-.083.229-.083.479 0 .458.333.792.333.333.75.333.25 0 .438-.083.187-.084.354-.25l5.625-5.625 1.916 1.958L19 31.958q-.167.209-.25.417-.083.208-.083.417 0 .5.312.791.313.292.771.292Zm0 3.042q-1.458 0-2.625-1.021t-1.417-2.563q-1.416-.25-2.375-1.208-.958-.958-1.166-2.333-1.375-.25-2.334-1.23-.958-.979-1.166-2.312-1.584-.25-2.605-1.396-1.02-1.146-1.02-2.687 0-.792.312-1.563.313-.771.896-1.354l9.458-9.458 5.042 5.041q.25.25.562.417.313.167.646.167.459 0 .854-.396.396-.396.396-.896 0-.208-.125-.479t-.375-.521l-5.958-6q-.542-.5-1.229-.75-.688-.25-1.438-.25-.708 0-1.395.25-.688.25-1.188.75l-6.083 6.083q-.459.459-.688 1.084-.229.625-.271 1.333-.041.667.209 1.313.25.645.666 1.187l-2.208 2.167q-.792-.875-1.271-2.146-.479-1.271-.437-2.563 0-1.291.479-2.458.479-1.167 1.396-2.083L9.333 5q.959-.958 2.229-1.417 1.271-.458 2.563-.458 1.333 0 2.563.458 1.229.459 2.187 1.375l.583.584.584-.584Q21 4.042 22.25 3.583q1.25-.458 2.542-.458 1.333 0 2.562.479 1.229.479 2.188 1.438l7.125 7.083q.958.958 1.437 2.25.479 1.292.479 2.583 0 1.292-.5 2.584-.5 1.291-1.458 2.25L22.708 35.708q-.583.584-1.354.896-.771.313-1.604.313Zm-4.375-23.375Z"/></svg>

<svg xmlns="http://www.w3.org/2000/svg" height="40" width="40"><path d="M19.75 33.875Q19.958 33.875 20.188 33.792Q20.417 33.708 20.583 33.542L34.458 19.667Q35 19.083 35.292 18.375Q35.583 17.667 35.583 16.958Q35.583 16.208 35.292 15.479Q35 14.75 34.458 14.208L27.417 7.167Q26.875 6.625 26.188 6.375Q25.5 6.125 24.792 6.125Q24.083 6.125 23.417 6.375Q22.75 6.625 22.208 7.125L21.625 7.708L24.833 10.958Q25.458 11.583 25.854 12.396Q26.25 13.208 26.25 14.167Q26.25 15.875 24.958 17.167Q23.667 18.458 21.917 18.458Q20.875 18.458 20.125 18.125Q19.375 17.792 18.75 17.167L15.708 14.125L8.417 21.375Q8.25 21.542 8.167 21.75Q8.083 21.958 8.083 22.208Q8.083 22.667 8.417 22.979Q8.75 23.292 9.208 23.292Q9.417 23.292 9.625 23.188Q9.833 23.083 10 22.958L15.625 17.333L17.542 19.292L11.958 24.875Q11.792 25.042 11.708 25.271Q11.625 25.5 11.625 25.708Q11.625 26.167 11.958 26.479Q12.292 26.792 12.75 26.792Q12.958 26.792 13.167 26.708Q13.375 26.625 13.542 26.458L19.125 20.875L21.083 22.833L15.5 28.417Q15.333 28.542 15.25 28.771Q15.167 29 15.167 29.25Q15.167 29.708 15.5 30.042Q15.833 30.375 16.25 30.375Q16.5 30.375 16.688 30.292Q16.875 30.208 17.042 30.042L22.667 24.417L24.583 26.375L19 31.958Q18.833 32.167 18.75 32.375Q18.667 32.583 18.667 32.792Q18.667 33.292 18.979 33.583Q19.292 33.875 19.75 33.875ZM19.75 36.917Q18.292 36.917 17.125 35.896Q15.958 34.875 15.708 33.333Q14.292 33.083 13.333 32.125Q12.375 31.167 12.167 29.792Q10.792 29.542 9.833 28.562Q8.875 27.583 8.667 26.25Q7.083 26 6.062 24.854Q5.042 23.708 5.042 22.167Q5.042 21.375 5.354 20.604Q5.667 19.833 6.25 19.25L15.708 9.792L20.75 14.833Q21 15.083 21.312 15.25Q21.625 15.417 21.958 15.417Q22.417 15.417 22.812 15.021Q23.208 14.625 23.208 14.125Q23.208 13.917 23.083 13.646Q22.958 13.375 22.708 13.125L16.75 7.125Q16.208 6.625 15.521 6.375Q14.833 6.125 14.083 6.125Q13.375 6.125 12.688 6.375Q12 6.625 11.5 7.125L5.417 13.208Q4.958 13.667 4.729 14.292Q4.5 14.917 4.458 15.625Q4.417 16.292 4.667 16.938Q4.917 17.583 5.333 18.125L3.125 20.292Q2.333 19.417 1.854 18.146Q1.375 16.875 1.417 15.583Q1.417 14.292 1.896 13.125Q2.375 11.958 3.292 11.042L9.333 5Q10.292 4.042 11.562 3.583Q12.833 3.125 14.125 3.125Q15.458 3.125 16.688 3.583Q17.917 4.042 18.875 4.958L19.458 5.542L20.042 4.958Q21 4.042 22.25 3.583Q23.5 3.125 24.792 3.125Q26.125 3.125 27.354 3.604Q28.583 4.083 29.542 5.042L36.667 12.125Q37.625 13.083 38.104 14.375Q38.583 15.667 38.583 16.958Q38.583 18.25 38.083 19.542Q37.583 20.833 36.625 21.792L22.708 35.708Q22.125 36.292 21.354 36.604Q20.583 36.917 19.75 36.917ZM15.375 13.542Q15.375 13.542 15.375 13.542Q15.375 13.542 15.375 13.542Q15.375 13.542 15.375 13.542Q15.375 13.542 15.375 13.542Q15.375 13.542 15.375 13.542Q15.375 13.542 15.375 13.542Q15.375 13.542 15.375 13.542Q15.375 13.542 15.375 13.542Q15.375 13.542 15.375 13.542Q15.375 13.542 15.375 13.542Q15.375 13.542 15.375 13.542Q15.375 13.542 15.375 13.542Q15.375 13.542 15.375 13.542Q15.375 13.542 15.375 13.542Z"/></svg>
